apps/common/mobile/resources/icons/ios/icon-link-rtl.svg

<svg width="24" height="24" viewBox="0 0 24 24" xmlns="http://www.w3.org/2000/svg">
<path d="M12.001 1.875C6.40917 1.87516 1.87516 6.40819 1.875 12C1.87516 17.5918 6.40917 22.1258 12.001 22.126C17.5928 22.1258 22.1258 17.5918 22.126 12C22.1258 6.40819 17.5928 1.87516 12.001 1.875ZM12.001 3.375C16.7644 3.37516 20.6258 7.23662 20.626 12C20.6258 16.7634 16.7644 20.6258 12.001 20.626C7.23759 20.6258 3.37516 16.7634 3.375 12C3.37516 7.23662 7.23759 3.37516 12.001 3.375Z" fill="#444444"/>
<path d="M16.9419 15.4678C16.9419 12.4353 13.8443 9.28021 10.7866 8.89258L10.7866 7.5127C10.7866 7.31051 10.6638 7.1282 10.4771 7.05078C10.2903 6.97359 10.075 7.01627 9.93213 7.15918L6.50439 10.5869C6.41074 10.6807 6.35791 10.8089 6.35791 10.9414C6.35813 11.0737 6.41082 11.2013 6.50439 11.2949L9.93213 14.7227C10.075 14.8654 10.2904 14.9081 10.4771 14.8311C10.6638 14.7537 10.7865 14.5712 10.7866 14.3691L10.7866 12.5713C13.1035 12.7618 15.6137 14.0171 15.6372 16.5713L15.6372 16.8525C15.6375 17.2118 15.9297 17.5035 16.2896 17.5039C16.6499 17.5039 16.9435 17.2123 16.9438 16.8525C16.9438 16.2272 16.9419 16.0929 16.9419 15.4678Z" fill="#444444"/>
</svg>

<svg xmlns="http://www.w3.org/2000/svg" width="24" height="24" fill="none" viewBox="0 0 24 24">
  <g class="icon-link-rtl">
    <path stroke="#444" stroke-linecap="round" stroke-linejoin="round" stroke-miterlimit="16" stroke-width="1.5" d="M2.624 12a9.375 9.375 0 1 0 18.751 0 9.375 9.375 0 0 0-18.75 0Z" class="icon-stroke-gray-primary"/>
    <path fill="#444" fill-rule="evenodd" d="M10.476 7.05a.5.5 0 0 0-.545.109l-3.429 3.428a.504.504 0 0 0 0 .708l3.428 3.428a.501.501 0 0 0 .855-.354v-1.798c2.317.19 4.828 1.446 4.851 4v.281a.653.653 0 0 0 1.307 0l-.002-1.384c0-3.033-3.098-6.188-6.156-6.576v-1.38a.5.5 0 0 0-.309-.461Z" class="icon-fill-gray-primary" clip-rule="evenodd"/>
  </g>
</svg>
